svgs/duotone/basketball-hoop.svg

<svg xmlns="http://www.w3.org/2000/svg" viewBox="0 0 640 512"><!-- Font Awesome Pro 6.0.0-alpha2 by @fontawesome - https://fontawesome.com License - https://fontawesome.com/license (Commercial License) --><defs><style>.fa-secondary{opacity:.4}</style></defs><path d="M192 240H448V160H192V240ZM632.545 177.723C574.035 72.236 456.188 0 320 0S65.965 72.236 7.455 177.723C2.328 186.967 0 197.533 0 208.104V326.143C0 351.57 15.053 374.586 38.348 384.777L131.434 425.502L115.393 288H112C103.164 288 96 280.836 96 272V256C96 247.162 103.164 240 112 240H160V160C160 142.359 174.344 128 192 128H448C465.656 128 480 142.359 480 160V240H528C536.836 240 544 247.162 544 256V272C544 280.836 536.836 288 528 288H524.607L508.564 425.504L601.652 384.777C624.947 374.586 640 351.57 640 326.143V208.104C640 197.533 637.672 186.967 632.545 177.723Z" class="fa-secondary"/><path d="M528 240H112C103.164 240 96 247.162 96 256V272C96 280.836 103.164 288 112 288H147.609L172.094 497.859C172.812 504.016 177.062 509.219 182.938 511.172C184.594 511.734 186.312 512 188 512C192.312 512 196.531 510.25 199.594 507.016L254 449.746L308.406 507.016C311.406 510.203 315.625 512 320 512S328.594 510.203 331.594 507.016L386 449.746L440.406 507.016C443.469 510.25 447.688 512 452 512C453.688 512 455.406 511.734 457.062 511.172C462.938 509.219 467.187 504.016 467.906 497.859L492.391 288H528C536.836 288 544 280.836 544 272V256C544 247.162 536.836 240 528 240ZM363.539 288L320 333.828L276.461 288H363.539ZM184.057 324.033L179.855 288H226.096L184.057 324.033ZM199.938 460.203L190.982 383.41L231.938 426.521L199.938 460.203ZM203.156 349.783L251.594 308.266L297.939 357.049L254 403.299L203.156 349.783ZM320 472.766L276.062 426.521L320 380.271L363.938 426.521L320 472.766ZM342.061 357.049L388.406 308.266L436.844 349.783L386 403.299L342.061 357.049ZM440.062 460.203L408.062 426.521L449.018 383.41L440.062 460.203ZM455.943 324.033L413.904 288H460.145L455.943 324.033Z" class="fa-primary"/></svg>

<svg xmlns="http://www.w3.org/2000/svg" viewBox="0 0 640 512"><!--! Font Awesome Pro 6.3.0 by @fontawesome - https://fontawesome.com License - https://fontawesome.com/license (Commercial License) Copyright 2023 Fonticons, Inc. --><defs><style>.fa-secondary{opacity:.4}</style></defs><path class="fa-primary" d="M520 240H120C106.7 240 96 250.7 96 264C96 277.3 106.7 288 120 288h27.61l24.48 209.8c.5527 4.738 4.955 14.16 15.9 14.16c4.312 0 8.536-1.746 11.6-4.98l54.41-57.27l54.41 57.27C311.4 510.2 315.6 512 320 512s8.594-1.797 11.59-4.984l54.41-57.27l54.41 57.27C443.5 510.3 447.7 512 452 512c11.04 0 15.36-9.445 15.91-14.16L492.4 288H520C533.3 288 544 277.3 544 264C544 250.7 533.3 240 520 240zM363.5 288L320 333.8L276.5 288H363.5zM184.1 324L179.9 288h46.24L184.1 324zM199.9 460.2l-8.955-76.79l40.96 43.11L199.9 460.2zM203.2 349.8l48.44-41.52l46.35 48.78l-43.94 46.25L203.2 349.8zM320 472.8l-43.94-46.24L320 380.3l43.94 46.25L320 472.8zM342.1 357l46.35-48.78l48.44 41.52l-50.84 53.52L342.1 357zM440.1 460.2l-32-33.68l40.96-43.11L440.1 460.2zM455.9 324L413.9 288h46.24L455.9 324z"/><path class="fa-secondary" d="M192 240h256V160H192V240zM320 0C102.1 0 0 169.8 0 208.1v118c0 25.43 15.05 48.44 38.35 58.63l93.09 40.72L115.4 288l.7285-.7832C104.8 285.3 96 275.9 96 264C96 250.7 106.7 240 120 240H160V160c0-17.64 14.34-32 32-32h256c17.66 0 32 14.36 32 32v80h40C533.3 240 544 250.7 544 264c0 11.88-8.789 21.3-20.12 23.22L524.6 288l-16.04 137.5l93.09-40.73C624.9 374.6 640 351.6 640 326.1V208.1C640 167.8 534.1 0 320 0z"/></svg>
